X:148
T:Maid in the Meadow, The
T:Stone In The Field, The
R:jig
H:A jig version of "The Green Fields of America", reel#150
D:Craobh Rua
Z:id:hn-jig-148
M:6/8
K:G
c3 ~B3|AGA BGE|DEG AGA|BdB AGE|
c3 ~B3|AGA BGE|DEG AGA|1 BGF GAB:|2 BGF G2D||
|:GBd gdd|ede gdB|GBd gdB|AGA cBA|
GBd gdd|ede gdB|GAB AGA|1 BGF G2D:|2 BGF GAB||

